X:952
T:Last Mile, The
R:reel
C:Mark Stewart
Z:id:hn-reel-952
M:C|
L:1/8
K:Ador
eA~A2 g2eA | ~A2g2 edde | eaae ~d3e | gedg edBd |
eA~A2 g2eA | ~A2g2 edde | a2ge gedg | edBd eA~A2 :|
|: egge a2eg | gea2 ge~e2 | fddg ddad | dgdd fd~d2 |
egge a2eg | gea2 ge~e2 | a2ge gedg | edBd eA~A2 :|

